X:1
T:1
T:1
T:Études enfantines op. 37
T:Henry Lemoine
C:Henri Lemoine
%%score { 1 | 2 }
L:1/8
Q:1/4=180
M:2/2
K:C
V:1 treble nm="Piano" snm="Pno."
V:2 bass 
V:1
"_legato"!f!"^Allegro" !5!c'bag !1!f!3!edc | !5!c'bag !1!f!3!edc | !5!d'c'ba !1!g!3!fed | %3
 !5!d'c'ba !1!g!3!fed | !5!e'd'c'b !1!a!3!gfe | !5!e'd'c'b !1!a!3!gfe | !5!d'c'ba !1!g!3!fed | %7
 !5!d'c'ba !1!g!3!fed | !5!c'bag !1!f!3!edc | !5!c'bag !1!f!3!edc | !5!d'c'ba !1!g!3!fed | %11
 !5!d'c'ba !1!g!3!fed | !5!c'bag !1!f!3!edc | !5!bagf !1!e!3!dcB | z (!5!c'ba gf!3!ed | c8) |] %16
V:2
 !5!!3!!1![C,E,G,]4 z4 | !5!!3!!1![E,G,C]4 z4 | [G,B,D]8- | [G,B,D]8 | !2!!1![CE]4 z4 | %5
 !5!!3!!1![E,G,C]4 z4 | [G,B,D]8- | [G,B,D]8 | !5!!3!!1![E,G,C]8- | [E,G,C]4 [E,G,C]4 | %10
 !5!!3!!1![F,A,D]8- | [F,A,D]4 [F,A,D]4 | !5!!2!!1![G,CE]8 | !5!!2!!1![G,DF]8 | !3!!1![CE]8- | %15
 [CE]8 |] %16

